X:10
T:Belle Jeannette. THO5.010, La
M:2/4
L:1/8
B:Thompson's Complete Collection of 200 Favourite Dances Vol.5
F:https://www.libraryofdance.org/manuals/1780c-Thompson-Compleat-5.pdf
U:w=!wedge!
Q:1/4=70
N:Interesting that the notation looks to be offset by half a bar.
K:G
G>A|BBcc|A2 d/e/d/c/|c/B/A/G/ G/F/G/A/|BAG>A|
BBcc|A2 d/e/d/c/|c/B/A/G/ B/A/G/F/|!fine!G2:|
G/A/B/c/|wdwBwcwd|BG G/A/B/c/|dBcd|[gBDG,]2 G/A/B/c/|
dBcB|BG G/A/B/c/|dBcd| !D.C.![gBDG,]2|]
W:
W:Turn Right hands and cast off ./.
W:Turn Left hands and cast off another couple ./:
W:Lead up to the top and cast off :/.
W:Right and Left :/:

